flaticon/technology/sound-cable.svg

<svg xmlns="http://www.w3.org/2000/svg" width="32" height="32" viewBox="0 0 24 24">
    <path d="M 22.550781 8.277344 L 22.136719 8.277344 L 22.136719 5.792969 C 22.136719 5.109375 21.582031 4.550781 20.898438 4.550781 C 20.210938 4.550781 19.65625 5.109375 19.65625 5.792969 L 19.65625 8.277344 L 19.242188 8.277344 L 19.242188 12 L 19.65625 12 L 19.65625 14.070312 L 20.484375 14.070312 L 20.484375 15.164062 C 20.484375 18.015625 19.003906 20.886719 15.804688 22.289062 C 17.148438 21.074219 18 19.328125 18 17.378906 C 18 13.730469 15.03125 10.757812 11.378906 10.757812 C 7.730469 10.757812 4.757812 13.730469 4.757812 17.378906 C 4.757812 18.726562 5.164062 19.976562 5.859375 21.023438 C 4.417969 19.636719 3.515625 17.6875 3.515625 15.535156 L 3.515625 9.515625 L 4.34375 9.515625 L 4.34375 7.449219 L 4.757812 7.449219 L 4.757812 3.722656 L 4.34375 3.722656 L 4.34375 1.242188 C 4.34375 0.558594 3.789062 0 3.101562 0 C 2.417969 0 1.863281 0.558594 1.863281 1.242188 L 1.863281 3.722656 L 1.449219 3.722656 L 1.449219 7.449219 L 1.863281 7.449219 L 1.863281 9.515625 L 2.691406 9.515625 L 2.691406 15.9375 L 2.699219 15.9375 C 2.910156 20.417969 6.621094 24 11.15625 24 C 11.210938 24 11.261719 23.996094 11.316406 23.996094 C 11.339844 23.996094 11.359375 24 11.378906 24 C 11.425781 24 11.46875 23.996094 11.515625 23.992188 C 17.300781 23.851562 21.308594 20.261719 21.308594 15.164062 L 21.308594 14.070312 L 22.136719 14.070312 L 22.136719 12 L 22.550781 12 Z M 2.277344 4.550781 L 3.929688 4.550781 L 3.929688 6.621094 L 2.277344 6.621094 Z M 3.101562 0.828125 C 3.332031 0.828125 3.515625 1.011719 3.515625 1.242188 L 3.515625 1.65625 L 2.691406 1.65625 L 2.691406 1.242188 C 2.691406 1.011719 2.875 0.828125 3.101562 0.828125 Z M 2.691406 2.484375 L 3.515625 2.484375 L 3.515625 3.722656 L 2.691406 3.722656 Z M 2.691406 7.449219 L 3.515625 7.449219 L 3.515625 8.691406 L 2.691406 8.691406 Z M 11.519531 23.164062 C 11.453125 23.167969 11.386719 23.167969 11.316406 23.167969 C 8.835938 23.136719 6.828125 21.109375 6.828125 18.621094 C 6.828125 16.109375 8.871094 14.070312 11.378906 14.070312 C 13.890625 14.070312 15.929688 16.109375 15.929688 18.621094 C 15.929688 21.082031 13.964844 23.089844 11.519531 23.164062 Z M 11.378906 11.585938 C 14.574219 11.585938 17.171875 14.183594 17.171875 17.378906 C 17.171875 18.261719 16.96875 19.097656 16.609375 19.851562 C 16.703125 19.453125 16.757812 19.042969 16.757812 18.621094 C 16.757812 15.65625 14.34375 13.242188 11.378906 13.242188 C 8.414062 13.242188 6 15.65625 6 18.621094 C 6 19.042969 6.054688 19.453125 6.148438 19.851562 C 5.792969 19.097656 5.585938 18.261719 5.585938 17.378906 C 5.585938 14.183594 8.183594 11.585938 11.378906 11.585938 Z M 21.722656 11.171875 L 20.070312 11.171875 L 20.070312 9.101562 L 21.722656 9.101562 Z M 20.898438 5.378906 C 21.125 5.378906 21.308594 5.566406 21.308594 5.792969 L 21.308594 6.207031 L 20.484375 6.207031 L 20.484375 5.792969 C 20.484375 5.566406 20.667969 5.378906 20.898438 5.378906 Z M 20.484375 7.035156 L 21.308594 7.035156 L 21.308594 8.277344 L 20.484375 8.277344 Z M 21.308594 13.242188 L 20.484375 13.242188 L 20.484375 12 L 21.308594 12 Z M 21.308594 13.242188"/>
</svg>

<svg xmlns="http://www.w3.org/2000/svg" width="32" height="32" viewBox="0 0 24 24">
    <path d="M22.55 8.277h-.413V5.793c0-.684-.555-1.242-1.239-1.242-.687 0-1.242.558-1.242 1.242v2.484h-.414V12h.414v2.07h.828v1.094c0 2.852-1.48 5.723-4.68 7.125A6.602 6.602 0 0 0 18 17.38a6.63 6.63 0 0 0-6.621-6.621c-3.649 0-6.621 2.972-6.621 6.62a6.56 6.56 0 0 0 1.101 3.645 7.603 7.603 0 0 1-2.343-5.488v-6.02h.828V7.45h.414V3.723h-.414v-2.48C4.344.558 3.789 0 3.102 0c-.684 0-1.239.559-1.239 1.242v2.48H1.45V7.45h.414v2.067h.828v6.421H2.7C2.91 20.419 6.621 24 11.156 24c.055 0 .106-.004.16-.004.024 0 .043.004.063.004.047 0 .09-.004.137-.008 5.785-.14 9.793-3.73 9.793-8.828V14.07h.828V12h.414zM2.278 4.551H3.93v2.07H2.277zM3.102.828c.23 0 .414.184.414.414v.414H2.69v-.414c0-.23.184-.414.41-.414zm-.41 1.656h.824v1.239H2.69zm0 4.965h.824v1.242H2.69zm8.828 15.715c-.067.004-.133.004-.204.004a4.552 4.552 0 0 1-4.488-4.547 4.555 4.555 0 0 1 4.55-4.55c2.513 0 4.552 2.038 4.552 4.55a4.551 4.551 0 0 1-4.41 4.543zm-.141-11.578a5.798 5.798 0 0 1 5.793 5.793c0 .883-.203 1.719-.563 2.473.094-.399.149-.809.149-1.23a5.386 5.386 0 0 0-5.38-5.38A5.386 5.386 0 0 0 6 18.622c0 .421.055.831.148 1.23a5.782 5.782 0 0 1-.562-2.473 5.798 5.798 0 0 1 5.793-5.793zm10.344-.414H20.07v-2.07h1.653zm-.825-5.793c.227 0 .41.187.41.414v.414h-.824v-.414c0-.227.184-.414.414-.414zm-.414 1.656h.825v1.242h-.825zm.825 6.207h-.825V12h.825zm0 0"/>
</svg>
